assets/icon-shirt.svg

<svg
  class="icon icon-accordion icon-shirt"

  focusable="false"
  xmlns="http://www.w3.org/2000/svg"


  viewBox="0 0 20 20"
>
  <path d="M5.81971 2.09623C5.66962 2.09623 5.54176 2.15186 5.44395 2.25357L1.21145 6.65441C1.1088 6.76918 1.05429 6.90939 1.05429 7.05112C1.05429 7.20712 1.10783 7.34015 1.20568 7.44189L3.32991 9.65061C3.44515 9.76252 3.57826 9.81363 3.71113 9.81363C3.85775 9.81363 3.9834 9.76402 4.08701 9.65628L4.09094 9.6522L4.7024 9.02972C4.85658 8.87275 5.08721 8.82933 5.28453 8.92013C5.48186 9.01093 5.60604 9.21761 5.59798 9.44182L5.31373 17.3532C5.31817 17.6495 5.55481 17.8928 5.84081 17.8928H6.18836L14.1803 17.9038C14.4659 17.9035 14.7026 17.6607 14.7074 17.3648L14.4021 9.4433C14.3934 9.21885 14.5174 9.01164 14.7148 8.92044C14.9122 8.82925 15.1432 8.87254 15.2976 9.02968L15.9059 9.6489C16.0215 9.76199 16.1553 9.81363 16.2889 9.81363C16.4354 9.81363 16.561 9.76407 16.6646 9.65628L18.7886 7.44788C18.8912 7.33314 18.9457 7.19288 18.9457 7.05112C18.9457 6.89515 18.8922 6.76218 18.7943 6.66041L14.5618 2.25956C14.4515 2.15289 14.3167 2.09623 14.1803 2.09623H12.6411C12.5341 2.09623 12.3259 2.19376 12.1903 2.3422L12.181 2.35239C11.5962 2.9605 10.8184 3.29107 9.99479 3.29107C9.1624 3.29107 8.38522 2.95368 7.75232 2.28271L7.74644 2.27647C7.63884 2.1587 7.50017 2.09623 7.35906 2.09623H5.81971ZM4.69845 1.47842C5.00127 1.16356 5.40048 1 5.81971 1H7.35906C7.80667 1 8.21475 1.19917 8.50754 1.51779C8.94944 1.98502 9.45762 2.19485 9.99479 2.19485C10.5398 2.19485 11.0467 1.97904 11.4314 1.5813C11.6973 1.29312 12.1609 1 12.6411 1H14.1803C14.6114 1 15.0018 1.18292 15.2913 1.46809L15.3017 1.47828L19.5398 5.88527C19.8426 6.20007 20 6.61513 20 7.05112C20 7.49942 19.824 7.90545 19.5498 8.20642L19.54 8.21718L17.4101 10.4314C17.0921 10.7621 16.6905 10.9099 16.2889 10.9099C16.0115 10.9099 15.7438 10.8349 15.5054 10.6946L15.7613 17.3337C15.7616 17.341 15.7617 17.3483 15.7617 17.3557C15.7617 18.2613 15.0513 19 14.1803 19L6.18836 18.989H5.84081C4.96982 18.989 4.25938 18.2503 4.25938 17.3447C4.25938 17.3379 4.2595 17.331 4.25974 17.3242L4.49783 10.6977C4.25265 10.8427 3.98187 10.9099 3.71113 10.9099C3.29738 10.9099 2.90507 10.743 2.59955 10.4412L2.58975 10.4316L0.460183 8.21704C0.157401 7.90221 0 7.48707 0 7.05112C0 6.60279 0.176044 6.19683 0.450248 5.89588L0.460047 5.88513L4.69845 1.47842Z"/>
</svg>

<svg xmlns="http://www.w3.org/2000/svg" class="icon icon-accordion icon-shirt" viewBox="0 0 20 20"><path d="M5.82 2.096a.5.5 0 0 0-.376.158l-4.233 4.4a.6.6 0 0 0-.157.397c0 .156.054.29.152.39l2.124 2.21a.54.54 0 0 0 .381.163q.22.002.376-.158l.004-.004.611-.622a.51.51 0 0 1 .583-.11.55.55 0 0 1 .313.522l-.284 7.911a.54.54 0 0 0 .527.54h.347l7.992.01a.54.54 0 0 0 .527-.538l-.305-7.922a.55.55 0 0 1 .313-.523.51.51 0 0 1 .583.11l.608.619c.115.113.25.165.383.165q.22.002.376-.158l2.124-2.208a.6.6 0 0 0 .157-.397.55.55 0 0 0-.152-.39L14.562 2.26a.55.55 0 0 0-.382-.164h-1.539c-.107 0-.315.098-.45.246l-.01.01a3.01 3.01 0 0 1-2.186.94c-.833 0-1.61-.338-2.243-1.01l-.006-.006a.53.53 0 0 0-.387-.18zm-1.122-.618A1.54 1.54 0 0 1 5.82 1h1.54c.447 0 .855.2 1.148.518.441.467.95.677 1.487.677.545 0 1.052-.216 1.436-.614.266-.288.73-.581 1.21-.581h1.54c.43 0 .82.183 1.11.468l.01.01 4.239 4.407c.303.315.46.73.46 1.166 0 .448-.176.854-.45 1.155l-.01.011-2.13 2.214c-.318.331-.72.479-1.121.479-.277 0-.545-.075-.784-.215l.256 6.639v.022c0 .905-.71 1.644-1.58 1.644l-7.993-.011h-.347c-.871 0-1.582-.739-1.582-1.644v-.02l.239-6.627a1.54 1.54 0 0 1-.787.212c-.414 0-.806-.167-1.111-.469l-.01-.01L.46 8.218A1.67 1.67 0 0 1 0 7.051c0-.448.176-.854.45-1.155l.01-.01z"/></svg>
